X:0925
T:A Trip to Forneth.
M:6/8
L:1/8
Q:3/8=120
P:ABA % Aird uses a da capo
I: :: || DC
Z:Jack Campin * www.campin.me.uk * 2009
K:G
P:A
G2B dBG|E2G D2G|G2B d2e|c3 B2A|G2B dBG|E2G D2G|E2G FED|G3 G3:|
P:B
eee efg|d2B A2G|e2e efg|f3 d3 |eee efg|d2B B2d|e2d c2B|B3 A3:|

